src/assets/icons/play.svg

<svg width="24" height="24" viewBox="0 0 24 24" fill="none" xmlns="http://www.w3.org/2000/svg">
  <path d="M8.75 8.14333C8.75 7.50516 8.75 7.18607 8.89263 7.01018C9.01688 6.85695 9.2068 6.76213 9.41239 6.75067C9.64837 6.73753 9.93296 6.91453 10.5021 7.26852L17.9089 11.8752C18.3792 12.1677 18.6143 12.3139 18.6963 12.4983C18.7679 12.6594 18.7679 12.8406 18.6963 13.0017C18.6143 13.1861 18.3792 13.3323 17.9089 13.6248L10.5021 18.2315C9.93296 18.5855 9.64837 18.7625 9.41239 18.7493C9.2068 18.7379 9.01688 18.643 8.89263 18.4898C8.75 18.3139 8.75 17.9948 8.75 17.3567V8.14333Z" stroke="#314158" stroke-width="1.5" stroke-linecap="round" stroke-linejoin="round"/>
</svg>

<svg fill="none" viewBox="0 0 24 24"><path stroke="currentColor" stroke-linecap="round" stroke-linejoin="round" stroke-width="1.5" d="M8.75 8.143c0-.638 0-.957.143-1.133a.72.72 0 0 1 .52-.26c.235-.012.52.165 1.09.519l7.406 4.606c.47.293.705.439.787.623a.62.62 0 0 1 0 .504c-.082.184-.317.33-.787.623l-7.407 4.607c-.569.354-.854.53-1.09.517a.72.72 0 0 1-.52-.26c-.142-.175-.142-.494-.142-1.132z"/></svg>
